X:1
T:Oise, 87.87.87 D
T:Oise, 87.87.87 D
T:Robert Lowry, 1871
T:Public Domain Courtesy of the Cyber Hymnal™
C:Robert Lowry, 1871
Z:Public Domain
Z:Courtesy of the Cyber Hymnal™
%%score ( 1 2 ) ( 3 4 )
L:1/8
Q:1/4=95
M:3/4
K:G
V:1 treble 
V:2 treble 
V:3 bass 
V:4 bass 
V:1
 [DG]>[DA] | [GB]3 [DG] [EA]>[EG] | [EG] [CE]3 [EG]>[CE] | D3 [DG] [FA]>[GB] | [FA]4 G>[GA] | %5
 [GB]3 [DG] [EA]>[EG] | [DF] [CE]3 [DF]>[DG] | [DA]3 [DF] [^CE]>[CF] | D4 [Dd]>[Dd] | %9
 [Gd]3 [GB] [DA][DG] | [CE] [B,D]3 [DG]>[DA] | [GB]3 [DG] [FA]>[GB] | [FA]4 [Fd]>[Fd] | %13
 [Gd]3 [GB] [DA][DG] | [EG] [CE]3 [DG]>[EA] | [DB]3 [DG] [DA]>[DA] | [DG]4 [Dd]>[Dd] | %17
 [Gd]3 [GB] [DA][DG] | [CE] [B,D]3 [DG]>[DA] | [GB]3 [DG] [FA]>[GB] | [FA]4 [Fd]>[Fd] | %21
 [Gd]3 [GB] [DA][DG] | [EG] [CE]3 [DG]>[EA] | [DB]3 [DG] [DA]>[DA] | [DG]4 |] %25
V:2
 x2 | x6 | x6 | D3 x3 | x4 G3/2 x/ | x6 | x6 | x6 | D4 x2 | x6 | x6 | x6 | x6 | x6 | x6 | x6 | x6 | %17
 x6 | x6 | x6 | x6 | x6 | x6 | x6 | x4 |] %25
V:3
 [G,B,]>[G,C] | [G,D]3 [G,B,] [C,C]>[C,C] | [C,C] [C,G,]3 [C,C]>[C,G,] | %3
 [B,,G,]3 [G,,B,] [D,D]>[D,D] | [D,D]4 [G,B,]>[G,C] | [G,D]3 [G,B,] [C,C]>[C,C] | %6
 [C,G,] [C,G,]3 [C,A,]>[B,,G,] | [A,,F,]3 [A,,A,] [A,,G,]>[A,,A,] | [D,F,]4 [G,B,]>[G,B,] | %9
 [G,B,]3 [G,D] [G,C][G,B,] | G, G,3 [G,B,]>[G,C] | [G,D]3 [G,B,] [D,D]>[D,D] | %12
 [D,D]4 [D,A,]>[D,A,] | [G,B,]3 [G,D] [G,C][G,B,] | [C,C] [C,G,]3 [B,,G,]>[C,G,] | %15
 [D,G,]3 [D,B,] [D,C]>[D,C] | [G,,B,]4 [G,B,]>[G,B,] | [G,B,]3 [G,D] [G,C][G,B,] | %18
 G, G,3 [G,B,]>[G,C] | [G,D]3 [G,B,] [D,D]>[D,D] | [D,D]4 [D,A,]>[D,A,] | %21
 [G,B,]3 [G,D] [G,C][G,B,] | [C,C] [C,G,]3 [B,,G,]>[C,G,] | [D,G,]3 [D,B,] [D,C]>[D,C] | %24
 [G,,B,]4 |] %25
V:4
 x2 | x6 | x6 | x6 | x6 | x6 | x6 | x6 | x6 | x6 | G, G,3 x2 | x6 | x6 | x6 | x6 | x6 | x6 | x6 | %18
 G, G,3 x2 | x6 | x6 | x6 | x6 | x6 | x4 |] %25

